X: 1683
T: Malbrook
C:Trad
B: australian traditional tunes wiki
M:6/8
L:1/8
R: Jig
Q: 3/8=100
K:G
V:1 
G/2A/2|B2B BAB|c3{c}BcB|A2A {B}AGA|B2GG2A|
B2B BAB|c3B2d|B2G {B}AGA|G3-G2B/c/||
d2Be2e|d3-d2B/2c/2|d2Be2e|d3-d2G/2A/2|
B2B BAB|c3{c}BcB|A2A {B}AGA|B2GG2A|
B2B BAB|c3B2d|B2G {B}AGA|G3G2z||
% abcbook-tune_id 6342d53a2387fc839126abc6


% abcbook-boost 0
% abcbook-tablature 
% abcbook-transpose 
% abcbook-lastupdated 1665324377767
% abcbook-soundfonts 
% abcbook-repeats 1
% NFF Book 2017

